X:1
T:Title
%%score { ( 1 3 ) | ( 2 4 ) }
L:1/8
M:4/4
K:F
V:1 treble nm="Grand Piano"
V:3 treble 
V:2 bass 
V:4 bass 
V:1
 z4 z2[Q:1/4=100] C2 | F>F F>G A>c F>A | [EG]2 E2 F3 A | c3 d c>A F>A | [EG]2 [Ec]2 [Ec]2 C2 | %5
 F>F F>G A>c F>A | [EG]2 E2 F3 A | c3 d c>A F>A |[M:3/4] [EG]4 F2 |[M:1/4] A>B | %10
[M:4/4] c4 [FA]2 z2 |[M:3/4] c6 |[M:1/4] B>A |[M:4/4] B4 [EG]2 z2 | c6 z2 | %15
 [CFA]>[=B,F_A] [CF=A]>[CGB] [FAc]2 A2 | B>A B>c [Fd]2 [DB]2 | (3A_A=A B>[EG] F2 E2 |[M:3/4] F6 |] %19
V:2
 z4 z2 [F,A,]2 | [F,A,C]>[F,A,C] [F,A,C]>[F,B,C] [F,CF]>[F,A,F] [F,A,]>[F,CF] | %2
 [C,C]2 [C,B,C]2 [F,A,C]3 [F,CF] | [F,A,F]3 [F,B,F] [F,A,F]>[F,CF] [F,A,]>[F,CF] | %4
 [C,C]2 [C,G,]2 [C,G,]2 [E,B,]2 | [F,A,C]>[F,A,C] [F,A,C]>[F,B,C] [F,CF]>[F,A,F] [F,A,]>[F,CF] | %6
 [C,C]2 [C,B,C]2 [F,A,C]3 [F,CF] | [F,A,F]3 [F,B,F] [F,A,F]>[F,CF] [F,A,]>[F,CF] | %8
[M:3/4] [C,B,]4 [F,A,]2 |[M:1/4][K:treble] F>G |[M:4/4] A4[K:bass] z4[K:treble] | %11
[M:3/4] A6[K:bass] |[M:1/4][K:treble] G>F |[M:4/4] G4[K:bass] z4[K:treble] | A6[K:bass] z2 | %15
 F,>F, F,>F, F,2 [F,CF]2 | [F,B,D]>[F,C] [F,D]>[F,B,F] [B,,B,]2 [B,,B,]2 | %17
 (3[C,F,C][C,F,=B,][C,F,C] [C,G,C]>[C,C] [C,A,C]2 [C,_B,C]2 |[M:3/4] [A,C]2 z2 z2 |] %19
V:3
 x8 | x8 | x8 | x8 | x8 | x8 | x8 | x8 |[M:3/4] x6 |[M:1/4] x2 |[M:4/4] z2 C>C C>C d>d | %11
[M:3/4] z2 F>F C2 |[M:1/4] x2 |[M:4/4] z2 C>C C>C e>d | z2 C>C C2 [CGB]2 | x8 | x8 | x8 | %18
[M:3/4] z z/ C/ D>D C2 |] %19
V:4
 x8 | x8 | x8 | x8 | x8 | x8 | x8 | x8 |[M:3/4] x6 |[M:1/4][K:treble] x2 | %10
[M:4/4] z2[K:bass] F,>F, F,>F,[K:treble] B>B |[M:3/4] z2[K:bass] F,>F, F,2 |[M:1/4][K:treble] x2 | %13
[M:4/4] z2[K:bass] C,>C, C,>C,[K:treble] B>B | z2[K:bass] F,>F, F,2 E,2 | x8 | x8 | x8 | %18
[M:3/4] F,->[F,-A,] [F,-B,]>[F,-B,] [F,A,]2 |] %19

